svgs/airasia.svg

<svg width="24" height="24" viewBox="0 0 24 24" fill="none" xmlns="http://www.w3.org/2000/svg">
<path fill-rule="evenodd" clip-rule="evenodd" d="M12.1654 3.15909C13.4723 3.3288 14.5045 3.75279 15.1637 4.39073L15.642 4.85351L15.7723 4.19428L15.9026 3.53491L18.75 3.49368L21.5974 3.45262L21.5049 4.09765C21.4538 4.45248 21.1408 6.54341 20.8091 8.74411C20.4775 10.9448 19.9667 14.3421 19.6743 16.2937C19.3816 18.2452 19.1064 19.9948 19.0626 20.1817C18.9835 20.5189 18.9619 20.5214 16.1924 20.5214C14.0587 20.5214 13.4028 20.477 13.4055 20.3327C13.4075 20.229 13.4687 19.8874 13.5416 19.5737L13.6739 19.0035L13.0728 19.5465C10.9942 21.4245 7.0559 21.4079 4.94746 19.5124C3.34015 18.0671 2.55349 16.2843 2.41986 13.7837C2.18899 9.466 4.28959 5.41883 7.58377 3.83447C9.14139 3.08525 10.2912 2.91569 12.1654 3.15909ZM10.2672 8.79469C8.92759 9.28058 8.12628 10.4612 8.12054 11.9575C8.11646 13.0326 8.37088 13.6696 9.07843 14.3569C10.7422 15.9727 13.7343 15.2428 14.4599 13.0443C14.761 12.1319 14.5886 10.8116 14.0708 10.0645C13.2473 8.87653 11.5781 8.31922 10.2672 8.79469Z" fill="#FFF1C0"/>
</svg>

<svg xmlns="http://www.w3.org/2000/svg" viewBox="0 0 24 24"><path d="M12.165 3.16c1.307.169 2.34.593 2.998 1.23l.479.463.13-.659.13-.66 2.848-.04 2.847-.041-.092.645c-.052.354-.365 2.445-.696 4.646-.332 2.2-.843 5.598-1.135 7.55-.293 1.951-.568 3.7-.612 3.888-.079.337-.1.34-2.87.34-2.134 0-2.79-.045-2.787-.19.002-.103.063-.445.136-.758l.133-.57-.602.543c-2.078 1.878-6.016 1.86-8.125-.035-1.607-1.445-2.394-3.228-2.527-5.728-.231-4.318 1.87-8.365 5.163-9.95 1.558-.749 2.708-.918 4.582-.675zm-1.898 5.635c-1.34.486-2.141 1.666-2.147 3.163-.004 1.075.25 1.712.958 2.399 1.664 1.616 4.656.886 5.381-1.313.302-.912.13-2.232-.389-2.98-.823-1.188-2.492-1.745-3.803-1.27z"/></svg>
